dist/img/svg/icon-footer-vk.svg

<svg width="28" height="28" viewBox="0 0 28 28" fill="none" xmlns="http://www.w3.org/2000/svg">
<circle cx="14" cy="14" r="14" fill="#25878A"/>
<path d="M15.6927 12.3134C15.6927 12.8576 15.6919 13.4026 15.6927 13.9469C15.6927 14.0932 15.6985 14.2461 15.8442 14.3283C16.0033 14.4187 16.1456 14.3382 16.278 14.2502C16.6752 13.9847 16.9399 13.5991 17.208 13.2218C17.8058 12.3783 18.3253 11.488 18.7199 10.5336C18.8607 10.1941 19.0655 10.0296 19.4493 10.0469C19.9688 10.0699 20.4892 10.0477 21.0095 10.0543C21.5332 10.0609 21.7497 10.3667 21.559 10.8517C21.1294 11.9426 20.4758 12.9069 19.799 13.8572C19.6616 14.0504 19.5359 14.2518 19.3985 14.445C19.2045 14.718 19.2528 14.9514 19.4784 15.1874C19.9863 15.7168 20.4775 16.261 20.9837 16.7913C21.3734 17.1998 21.6756 17.6643 21.9254 18.1633C22.1252 18.5628 21.9087 18.9698 21.4566 18.9862C20.7814 19.0109 20.1045 18.9969 19.4285 18.987C19.1937 18.9837 19.0388 18.844 18.9031 18.6516C18.327 17.8378 17.6043 17.162 16.8217 16.5446C16.7809 16.5126 16.7359 16.4863 16.691 16.46C16.2064 16.1788 15.9708 16.3005 15.9525 16.8513C15.9408 17.1998 15.9508 17.55 15.9475 17.8994C15.9417 18.5332 15.5362 18.9245 14.9001 18.9492C13.3549 19.0092 12.0985 18.3548 10.9737 17.3979C9.85139 16.4427 9.1104 15.1981 8.38023 13.9518C7.82741 13.0056 7.362 12.0207 7.0681 10.9627C6.87578 10.2689 7.08059 10.0017 7.81325 10.0009C8.25035 10.0001 8.68662 10.0042 9.12372 10.0001C9.46841 9.99676 9.68904 10.1456 9.8056 10.4719C10.1112 11.3244 10.4309 12.172 10.8538 12.976C11.196 13.6254 11.5856 14.2428 12.1127 14.7648C12.1859 14.8372 12.2634 14.9087 12.3508 14.9621C12.5839 15.106 12.7404 15.0443 12.8228 14.7837C12.8445 14.7155 12.862 14.6432 12.8611 14.5725C12.8495 13.6493 12.9144 12.7244 12.8029 11.8021C12.7479 11.3516 12.4923 11.0038 12.2417 10.6495C12.1476 10.5171 12.0111 10.3905 12.1018 10.208C12.1934 10.0231 12.3782 10.0535 12.5414 10.0527C13.3632 10.051 14.1858 10.0502 15.0075 10.0527C15.5304 10.0543 15.6877 10.2138 15.6902 10.7416C15.6927 11.2652 15.6911 11.7897 15.6911 12.3134H15.6927Z" fill="white"/>
</svg>

<svg width="28" height="28" viewBox="0 0 28 28" fill="none" xmlns="http://www.w3.org/2000/svg"><circle cx="14" cy="14" r="14" fill="#25878A"/><path d="M15.693 12.313c0 .545-.001 1.09 0 1.634 0 .146.005.3.151.381.16.09.302.01.434-.078.397-.265.662-.65.93-1.028a13.741 13.741 0 001.512-2.688c.14-.34.346-.504.73-.487.519.023 1.04 0 1.56.007.523.007.74.313.549.798-.43 1.09-1.083 2.055-1.76 3.005-.137.193-.263.395-.4.588-.195.273-.146.506.08.742.507.53.998 1.074 1.505 1.604.39.409.692.873.941 1.372.2.4-.016.807-.468.823-.676.025-1.352.01-2.029.001-.234-.003-.39-.143-.525-.335-.576-.814-1.299-1.49-2.081-2.107a1.129 1.129 0 00-.131-.085c-.485-.281-.72-.16-.738.391-.012.349-.002.699-.005 1.048-.006.634-.412 1.025-1.048 1.05-1.545.06-2.802-.594-3.926-1.551-1.123-.955-1.864-2.2-2.594-3.446-.553-.946-1.018-1.931-1.312-2.99-.192-.693.013-.96.745-.961.437 0 .874.003 1.31 0 .345-.004.566.145.683.47.305.853.625 1.701 1.048 2.505.342.65.732 1.267 1.259 1.789.073.072.15.144.238.197.233.144.39.082.472-.178a.681.681 0 00.038-.212c-.011-.923.053-1.848-.058-2.77-.055-.45-.31-.798-.561-1.152-.094-.133-.23-.26-.14-.442.091-.185.276-.155.44-.155.821-.002 1.644-.003 2.466 0 .522.001.68.16.682.689.003.523.001 1.048.001 1.571h.002z" fill="#fff"/></svg>
